src/components/Footer/images/logo-11.svg

<svg width="470" height="262" viewBox="0 0 470 262" fill="none" xmlns="http://www.w3.org/2000/svg">
<g clip-path="url(#clip0_1_446)">
<path d="M235.005 57.4638C214.706 57.4638 196.322 65.6975 183.012 79.0175C169.698 92.3071 161.469 110.701 161.469 131.01C161.469 151.304 169.698 169.685 183.012 182.98C196.322 196.282 214.706 204.531 235.005 204.531C255.309 204.531 273.703 196.282 286.993 182.98C300.302 169.685 308.513 151.304 308.513 131.01C308.513 110.701 300.302 92.3071 286.993 79.0175C273.703 65.6975 255.309 57.4638 235.005 57.4638ZM235.005 48.5533C280.533 48.5533 317.447 85.4723 317.447 131.01C317.447 176.533 280.533 213.447 235.005 213.447C189.482 213.447 152.553 176.533 152.553 131.01C152.553 85.4723 189.482 48.5533 235.005 48.5533Z" fill="white"/>
<path d="M196.011 130.338C196.011 125.533 192.823 122.804 188.31 122.804H185.547V137.878H188.231C192.428 137.878 196.011 135.597 196.011 130.338ZM245.148 135.762L224.798 151.786L206.199 137.143C203.515 143.59 197.03 148.068 189.562 148.068H173.644V112.609H189.562C197.907 112.609 203.921 117.915 206.194 123.569L224.798 108.942L231.689 114.365L214.638 127.766L217.915 130.331L234.96 116.937L241.861 122.345L224.813 135.762L228.085 138.331L245.148 124.913V112.609H257.518V137.718H269.857V148.111H245.148V135.762ZM285.526 137.723H297.86V148.111H273.144V112.609H285.526V137.723Z" fill="white"/>
</g>
<defs>
<clipPath id="clip0_1_446">
<rect width="166" height="166" fill="white" transform="translate(152 48)"/>
</clipPath>
</defs>
</svg>

<svg xmlns="http://www.w3.org/2000/svg" width="470" height="262" fill="none"><g fill="#2C2C2C" clip-path="url(#a)"><path d="M235.005 57.464c-20.299 0-38.683 8.234-51.993 21.553-13.314 13.29-21.543 31.684-21.543 51.993 0 20.294 8.229 38.675 21.543 51.97 13.31 13.302 31.694 21.551 51.993 21.551 20.304 0 38.698-8.249 51.988-21.551 13.309-13.295 21.52-31.676 21.52-51.97 0-20.309-8.211-38.703-21.52-51.992-13.29-13.32-31.684-21.554-51.988-21.554Zm0-8.91c45.528 0 82.442 36.918 82.442 82.456 0 45.523-36.914 82.437-82.442 82.437-45.523 0-82.452-36.914-82.452-82.437 0-45.538 36.929-82.457 82.452-82.457Z"/><path d="M196.011 130.338c0-4.805-3.188-7.534-7.701-7.534h-2.763v15.074h2.684c4.197 0 7.78-2.281 7.78-7.54Zm49.137 5.424-20.35 16.024-18.599-14.643c-2.684 6.447-9.169 10.925-16.637 10.925h-15.918v-35.459h15.918c8.345 0 14.359 5.306 16.632 10.96l18.604-14.627 6.891 5.423-17.051 13.401 3.277 2.565 17.045-13.394 6.901 5.408-17.048 13.417 3.272 2.569 17.063-13.418v-12.304h12.37v25.109h12.339v10.393h-24.709v-12.349Zm40.378 1.961h12.334v10.388h-24.716v-35.502h12.382v25.114Z"/></g><defs><clipPath id="a"><path fill="#fff" d="M152 48h166v166H152z"/></clipPath></defs></svg>
